src/rounded/icons/fi-rr-pound.svg

<svg id="Layer_1" height="512" viewBox="0 0 24 24" width="512" xmlns="http://www.w3.org/2000/svg" data-name="Layer 1"><path d="m21 22h-14.116a6.934 6.934 0 0 0 1.116-4v-4h7a1 1 0 0 0 0-2h-7v-4a6 6 0 0 1 12 0 1 1 0 0 0 2 0 8 8 0 0 0 -16 0v4h-2a1 1 0 0 0 0 2h2v4c0 1.2-.292 4-3 4a1 1 0 0 0 0 2h18a1 1 0 0 0 0-2z"/></svg>

<svg id="Layer_1" data-name="Layer 1" xmlns="http://www.w3.org/2000/svg" viewBox="0 0 24 24"><path d="M21,22H6.884A6.934,6.934,0,0,0,8,18V14h7a1,1,0,0,0,0-2H8V8A6,6,0,0,1,20,8a1,1,0,0,0,2,0A8,8,0,0,0,6,8v4H4a1,1,0,0,0,0,2H6v4c0,1.2-.292,4-3,4a1,1,0,0,0,0,2H21a1,1,0,0,0,0-2Z"/></svg>
